X: 4
T: No_102_Hand_Game_Song_(i).krn
N: Derived from No_102_Hand_Game_Song_(i).krn
%%abc-version 2.0
%%abcx-abcm2ps-target-version 5.9.1 (29 Sep 2008)
%%abc-creator hum2abc beta
%%abcx-conversion-date 2019/03/15 08:36:49
%%humdrum-veritas 1174001147
%%humdrum-veritas-data 3982917582
%%linebreak <none>
%%barnumbers 0
L: 1/8
M: 3/4
%%staves {1 2}
V: 1 clef=bass
V: 2 clef=bass
K: G
[V:1] [K:clef=bass][M:3/4]D4ED [I:setbarnb 2]||  
[V:2] [K:clef=bass][M:3/4]G,,G,, G,,G,, G,,G,, ||  
[V:1] [M:2/4]A,2G,2 | 
[V:2] [M:2/4]z4 | 
[V:1] E,D,E,2 ||  
[V:2] z4 ||  
[V:1] [M:3/4]D,2D,4 | 
[V:2] [M:3/4]z6 | 
[V:1] G,2A,/G,3/ A,/G,3/ ||  
[V:2] z6 ||  
[V:1] [M:2/4]E,/D,3/ E,/D,3/ ||  
[V:2] [M:2/4]z4 ||  
[V:1] [M:3/4]D,2D,4 | 
[V:2] [M:3/4]z6 | 
[V:1] G,2E,/D,3/E,2 | 
[V:2] z6 | 
[V:1] D,2D,4 ||  
[V:2] z6 ||  
[V:1] [M:2/4]D,4 | 
[V:2] [M:2/4]z4 | 
[V:1] D,4 :|]  
[V:2] z4 :|]  



